X:174
T: MAEDCHEN STEH AUF UND LASS MICH EIN
N: Z0173
O: Europa, Mitteleuropa, Deutschland, Juelich, Kleve
R: Erzaehlung, lustige Romanze
M: 3/4
L: 1/4
K: D
 | D,F,A, | D2B, | B,A,A, | B,A,A, |
F,F,F, | A,2E, | G,F,F, | G,F,F, |
D,F,A, | D2F | E2C | D2z

@@@ Tune index: 9932
